X:19
T:Cancion o Tocata
C:Santaigo de Murcia (1682-1732)
N:Arranged for Mandolin by Mike Stangeland
L:1/8
Q:1/4=100
M:12/8
K:F
z8z2fe |: [fA]cf [gcE]cg [a4A4F4]gf | [gAE]fe [fAD]ed e/4f/4e/4f/4ec2fe | fcd _e2e e2d2gf | 
gde f/4e/4f3/2f f2e2fe | [dB]ef gab edc [fA]ga |1 def cfe [f4A4F4]fe :|2 [dB]ef cfe [f4A4F4]ag | 
|: gfe fd_d =deA =B_d[=dD] | efe fd_d =BA=d cd_B | AGe de_d =BA[=dF] ef[BG] | 
_d=dA d_d[=dD] z2D fef | cd_e2ee2d2 gfg | def/4e/4f3/2ff2e2 fe[dB] | efg abe dc[fA] ga[dB] | 
|1 efc fe[fAF] z3 aga :|2 efc fe[fAF] z6 | 
 

